X: 1
T: Songbirds in June
C: Sarah Matthews
Z: Stephen Hebert
R: waltz
M: 3/4
L: 1/8
Q: 1/4=120
K: Dmaj
A,B,|D3A,DF|E3F/E/DE|DA,DEFA|B3Adc|A3FED|E3F/E/DE|1 F3EDA,|B,4 :|2 F2G/F/E2F/E/|D3 D||
|:FA|B3Adc|A3 DFA|BABcdg|f3edc|B3Adc|A3FED|1 E3DEF|E3 D:|2 E3 DFE|D4 ||